svgs/1F918-1F3FE.svg

<svg xmlns="http://www.w3.org/2000/svg" xmlns:xlink="http://www.w3.org/1999/xlink" preserveAspectRatio="none" viewBox="0 0 72 72"><defs><path id="a" fill="#AD6F43" d="M55.6 1.5Q54.35.1 52.05.1q-3.9 0-4.25 5.35-.2 3-2.05 24.55-.15.3-.4.4-.55.15-1.15-1-.55-1-1.6-1.65-1.35-.8-2.95-.6-2.1.35-2.85 1.4-.5.65-.95 2.9-.35 1.45-.65.8-1.2-2-1.45-2.25-.55-.6-1.6-1-1.25-.5-2.4-.3-1.55.25-2.8 1.45-1.3 1.2-1.6 2.8-.25 1.4-.95.9-.3-.2-1.2-1.45-.55-.75-1.75-1.05-1.35-.4-2.6.05-3.8 1.3-3.95 4.9-.05 1.5-.45 9.7-.1 8.4 1.6 13.25 1.7 5.1 7.2 8.8 6.05 4 13.55 4 9.35 0 15.9-5.6 6.5-5.55 6.5-13.25 0-3.8-.95-8.7-1.05-5.4-1.15-7.05-.25-6.45-.25-19.5 0-12.55-.05-13.15-.15-2.1-1.2-3.3z"/><path id="b" fill="#AD6F43" d="M20.05 19.1q-1.65-6.8-2-8.6-.4-1.95-1.65-2.85-1.15-.8-2.55-.5-1.35.35-2.3 1.5-1 1.3-1 3.1 0 2.1 1.1 9.85.95 6.7 1.6 10.25.8 4.45 1.1 9.15.15 2.3.15 3.8l11.85-3.5.05-8.1-.6.8q-.7.7-1.35.05-.55-.6-1.25-2.2-.7-1.7-1.05-3.55-.5-2.6-2.1-9.2z"/><path id="c" fill="#7A4C32" d="M55.55 45q.017.16 0 .3-.25.6-.7.75-.663.21-1.4-.75v.25l-.65 19.7q-1.789-.787-5.5-2.4-4.124-1.804-7.15-2.8.006-.048 0-.1l-1.9-11.1q-.068-.432-.35-.7-.362 2.012-1.35.6-.221-.33-.45-.65v.05q-.35.35-.35.85l.05 10.05q-1.126-.04-2 .1l-.5.1q-.4 0-.8.2-.85.35-1.3.65-1.35.85-2.2 2.1-.85 1.5-1.1 2.85-.2 1.25-.1 2.9 0 .5.2 1.4l.1.3v.3l.2.6q.3.45.45 1.15.2.8.4 1.2.707 1.837 1.65 3.4h-.3q-1 0-1.55-.2-2.1-.5-3.45-2.5-1.4-1.85-2.55-5-1.6-4.2-2.7-11-.45-2.2-.6-3.75l-.2-1.45q-.08-.318-.35-.6-.463 1.135-1.4.45-.108-.072-.3-.25-.15.27-.15.6l.1 1.5q0 1.55.3 3.95.65 6.85 2.1 11.65 1.3 3.9 2.75 6.1 1.7 2 2.3 2.5 1.5 1.15 2.8 1.6 1.5.6 2.7.6l2-.1q.6-.1 1.3-.2l.35-.1q.577.533 1.2 1 1.4 1 2.2 1.4 1.6.8 2.3 1L43.8 85q1.65.45 4.1 1.4l2 .7q1.35.45 1.5.6.95.5 1.9 2.2.8 1.45.95 2.9l.05 2-.05.7q-.65 2-.85 2.4-.85 1.85-2.5 3.5-.7.85-2.15 1.9l-.95.6h-.05q-.5.3-.35.9.05.3.4.45.3.15.6.05l1.1-.4q2-.85 3-1.6 2.25-1.7 3.6-4 .9-1.65 1.3-3.2l.2-.9.1-1.9-.1-1q-.4-2.5-1.2-4-1-2.2-3.1-3.6-.6-.35-1.2-.55-.8-.3-.95-.35l-10-3.8q-1.25-.45-1.9-.8-1-.5-1.75-1.1-3.15-2.45-4.75-6.6-.2-.25-.45-1l-.3-1-.15-1.9q-.15-2.1.6-3.15.25-.5 1-1l.7-.35.25-.2.5-.1 1.5.1 1.9.4q2.45.75 7.6 2.9 6.65 2.75 7 2.9 5.25 2.2 5.85 2.5l8.3 3.6q.5.2.85-.15.6-.75 0-1.45-1.1-1.05-3.4-2.65-2.05-1.45-4.4-2.5l-3.05-1.4q.013-.08 0-.2l-.1-3.3q-.3-6-.4-7.35-.15-3.75-.5-7.3l-.3-3.3q0-.335-.2-.6z"/></defs><use xlink:href="#a"/><use xlink:href="#b"/><use transform="translate(14.45 4.4) scale(.5625)" xlink:href="#c"/></svg>

<svg xmlns="http://www.w3.org/2000/svg" version="1.1" xmlns:xlink="http://www.w3.org/1999/xlink" preserveAspectRatio="none" x="0px" y="0px" width="72px" height="72px" viewBox="0 0 72 72">
<defs>
<g id="Layer0_0_FILL">
<path fill="#AD6F43" stroke="none" d="
M 55.6 1.5
Q 54.35 0.1 52.05 0.1 48.15 0.1 47.8 5.45 47.6 8.45 45.75 30 45.6 30.3 45.35 30.4 44.8 30.55 44.2 29.4 43.65 28.4 42.6 27.75 41.25 26.95 39.65 27.15 37.55 27.5 36.8 28.55 36.3 29.2 35.85 31.45 35.5 32.9 35.2 32.25 34 30.25 33.75 30 33.2 29.4 32.15 29 30.9 28.5 29.75 28.7 28.2 28.95 26.95 30.15 25.65 31.35 25.35 32.95 25.1 34.35 24.4 33.85 24.1 33.65 23.2 32.4 22.65 31.65 21.45 31.35 20.1 30.95 18.85 31.4 15.05 32.7 14.9 36.3 14.85 37.8 14.45 46 14.35 54.4 16.05 59.25 17.75 64.35 23.25 68.05 29.3 72.05 36.8 72.05 46.15 72.05 52.7 66.45 59.2 60.9 59.2 53.2 59.2 49.4 58.25 44.5 57.2 39.1 57.1 37.45 56.85 31 56.85 17.95 56.85 5.4 56.8 4.8 56.65 2.7 55.6 1.5 Z"/>
</g>

<g id="Layer0_1_FILL">
<path fill="#AD6F43" stroke="none" d="
M 20.05 19.1
Q 18.4 12.3 18.05 10.5 17.65 8.55 16.4 7.65 15.25 6.85 13.85 7.15 12.5 7.5 11.55 8.65 10.55 9.95 10.55 11.75 10.55 13.85 11.65 21.6 12.6 28.3 13.25 31.85 14.05 36.3 14.35 41 14.5 43.3 14.5 44.8
L 26.35 41.3 26.4 33.2 25.8 34
Q 25.1 34.7 24.45 34.05 23.9 33.45 23.2 31.85 22.5 30.15 22.15 28.3 21.65 25.7 20.05 19.1 Z"/>
</g>

<g id="An_1F918_SVG_Layer_1__Clip_Group__0_Layer1_0_FILL">
<path fill="#7A4C32" stroke="none" d="
M 55.55 45
Q 55.5671875 45.16015625 55.55 45.3 55.3 45.9 54.85 46.05 54.18671875 46.2595703125 53.45 45.3 53.45 45.43125 53.45 45.55
L 52.8 65.25
Q 51.0111328125 64.4634765625 47.3 62.85 43.1763671875 61.0458984375 40.15 60.05 40.155859375 60.0021484375 40.15 59.95
L 38.25 48.85
Q 38.1818359375 48.41796875 37.9 48.15 37.5384765625 50.162109375 36.55 48.75 36.3287109375 48.4205078125 36.1 48.1
L 36.1 48.15
Q 35.75 48.5 35.75 49
L 35.8 59.05
Q 34.6744140625 59.01015625 33.8 59.15
L 33.3 59.25
Q 32.9 59.25 32.5 59.45 31.65 59.8 31.2 60.1 29.85 60.95 29 62.2 28.15 63.7 27.9 65.05 27.7 66.3 27.8 67.95 27.8 68.45 28 69.35
L 28.1 69.65 28.1 69.95 28.3 70.55
Q 28.6 71 28.75 71.7 28.95 72.5 29.15 72.9 29.856640625 74.7375 30.8 76.3
L 30.5 76.3
Q 29.5 76.3 28.95 76.1 26.85 75.6 25.5 73.6 24.1 71.75 22.95 68.6 21.35 64.4 20.25 57.6 19.8 55.4 19.65 53.85
L 19.45 52.4
Q 19.3705078125 52.081640625 19.1 51.8 18.637109375 52.934765625 17.7 52.25 17.5923828125 52.1783203125 17.4 52 17.25 52.270703125 17.25 52.6
L 17.35 54.1
Q 17.35 55.65 17.65 58.05 18.3 64.9 19.75 69.7 21.05 73.6 22.5 75.8 24.2 77.8 24.8 78.3 26.3 79.45 27.6 79.9 29.1 80.5 30.3 80.5
L 32.3 80.4
Q 32.9 80.3 33.6 80.2
L 33.95 80.1
Q 34.526953125 80.6328125 35.15 81.1 36.55 82.1 37.35 82.5 38.95 83.3 39.65 83.5
L 43.8 85
Q 45.45 85.45 47.9 86.4
L 49.9 87.1
Q 51.25 87.55 51.4 87.7 52.35 88.2 53.3 89.9 54.1 91.35 54.25 92.8
L 54.3 94.8 54.25 95.5
Q 53.6 97.5 53.4 97.9 52.55 99.75 50.9 101.4 50.2 102.25 48.75 103.3
L 47.8 103.9 47.75 103.9
Q 47.25 104.2 47.4 104.8 47.45 105.1 47.8 105.25 48.1 105.4 48.4 105.3
L 49.5 104.9
Q 51.5 104.05 52.5 103.3 54.75 101.6 56.1 99.3 57 97.65 57.4 96.1
L 57.6 95.2 57.7 93.3 57.6 92.3
Q 57.2 89.8 56.4 88.3 55.4 86.1 53.3 84.7 52.7 84.35 52.1 84.15 51.3 83.85 51.15 83.8
L 41.15 80
Q 39.9 79.55 39.25 79.2 38.25 78.7 37.5 78.1 34.35 75.65 32.75 71.5 32.55 71.25 32.3 70.5
L 32 69.5 31.85 67.6
Q 31.7 65.5 32.45 64.45 32.7 63.95 33.45 63.45
L 34.15 63.1 34.4 62.9 34.9 62.8 36.4 62.9 38.3 63.3
Q 40.75 64.05 45.9 66.2 52.55 68.95 52.9 69.1 58.15 71.3 58.75 71.6
L 67.05 75.2
Q 67.55 75.4 67.9 75.05 68.5 74.3 67.9 73.6 66.8 72.55 64.5 70.95 62.45 69.5 60.1 68.45 58.5560546875 67.7412109375 57.05 67.05 57.06328125 66.969140625 57.05 66.85
L 56.95 63.55
Q 56.65 57.55 56.55 56.2 56.4 52.45 56.05 48.9
L 55.75 45.6
Q 55.75 45.2654296875 55.55 45 Z"/>
</g>
</defs>

<g id="Layer_1">
<g transform="matrix( 1, 0, 0, 1, 0,0) ">
<use xlink:href="#Layer0_0_FILL"/>
</g>

<g transform="matrix( 1, 0, 0, 1, 0,0) ">
<use xlink:href="#Layer0_1_FILL"/>
</g>

<g transform="matrix( 0.5625, 0, 0, 0.5625, 14.45,4.4) ">
<g id="Camada_1"/>

<g id="MergedLayer_1">
<g transform="matrix( 1, 0, 0, 1, 0,0) ">
<use xlink:href="#An_1F918_SVG_Layer_1__Clip_Group__0_Layer1_0_FILL"/>
</g>
</g>

<g id="Camada_4"/>
</g>
</g>
</svg>
